src/assets/filled/PenTool2.svg

<svg width="24" height="24" viewBox="0 0 24 24"  xmlns="http://www.w3.org/2000/svg">
<path d="M20.98 10.7C20.76 6.8 17.87 3.55 14.01 2.89C13.95 2.12 13.31 1.5 12.52 1.5H11.52C10.73 1.5 10.1 2.11 10.03 2.88C6.15002 3.52 3.24002 6.78 3.02002 10.7C2.31002 10.82 1.77002 11.43 1.77002 12.17V13.17C1.77002 14 2.44002 14.67 3.27002 14.67H4.27002C5.10002 14.67 5.77002 14 5.77002 13.17V12.17C5.77002 11.43 5.23002 10.82 4.52002 10.7C4.73002 7.58 7.02002 4.99 10.08 4.39C10.25 5.03 10.83 5.5 11.52 5.5H12.52C13.21 5.5 13.78 5.03 13.96 4.4C17 5.01 19.27 7.6 19.48 10.7C18.77 10.82 18.23 11.43 18.23 12.17V13.17C18.23 14 18.9 14.67 19.73 14.67H20.73C21.56 14.67 22.23 14 22.23 13.17V12.17C22.23 11.43 21.69 10.81 20.98 10.7Z" />
<path d="M15.7701 16.5502L14.1301 18.0002H9.88008L8.24008 16.5502C7.29008 15.7702 7.29008 15.1702 8.01008 14.2502L10.9001 10.5902C11.1001 10.3402 11.3301 10.1702 11.5901 10.0802C11.8601 9.9902 12.1501 9.9902 12.4301 10.0802C12.6801 10.1702 12.9101 10.3402 13.1201 10.5902L16.0001 14.2402C16.7301 15.1602 16.6901 15.7302 15.7701 16.5502Z" />
<path d="M13.3202 22.0003H10.7302C9.81017 22.0003 9.12017 21.2503 9.30017 20.4503L9.61017 19.0603C9.67017 18.7803 9.92017 18.5903 10.2002 18.5903H13.8502C14.1302 18.5903 14.3702 18.7803 14.4402 19.0603L14.7502 20.4503C14.9402 21.3003 14.3002 22.0003 13.3202 22.0003Z" />
</svg>

<?xml version="1.0" encoding="UTF-8"?>
<svg width="24" height="24" viewBox="0 0 24 24" xmlns="http://www.w3.org/2000/svg">
 <path d="m20.98 10.7c-0.22-3.9-3.11-7.15-6.97-7.81-0.06-0.77-0.7-1.39-1.49-1.39h-1c-0.79 0-1.42 0.61-1.49 1.38-3.88 0.64-6.79 3.9-7.01 7.82-0.71 0.12-1.25 0.73-1.25 1.47v1c0 0.83 0.67 1.5 1.5 1.5h1c0.83 0 1.5-0.67 1.5-1.5v-1c0-0.74-0.54-1.35-1.25-1.47 0.21-3.12 2.5-5.71 5.56-6.31 0.17 0.64 0.75 1.11 1.44 1.11h1c0.69 0 1.26-0.47 1.44-1.1 3.04 0.61 5.31 3.2 5.52 6.3-0.71 0.12-1.25 0.73-1.25 1.47v1c0 0.83 0.67 1.5 1.5 1.5h1c0.83 0 1.5-0.67 1.5-1.5v-1c0-0.74-0.54-1.36-1.25-1.47z"/>
 <path d="m15.77 16.55-1.64 1.45h-4.25l-1.64-1.45c-0.95-0.78-0.95-1.38-0.23-2.3l2.89-3.66c0.2-0.25 0.43-0.42 0.69-0.51 0.27-0.09 0.56-0.09 0.84 0 0.25 0.09 0.48 0.26 0.69 0.51l2.88 3.65c0.73 0.92 0.69 1.49-0.23 2.31z"/>
 <path d="m13.32 22h-2.59c-0.92003 0-1.61-0.75-1.43-1.55l0.31-1.39c0.06-0.28 0.31-0.47 0.59003-0.47h3.65c0.28 0 0.52 0.19 0.59 0.47l0.31 1.39c0.19 0.85-0.45 1.55-1.43 1.55z"/>
</svg>
